svgs/sharp-regular/cubes-stacked.svg

<svg xmlns="http://www.w3.org/2000/svg" viewBox="0 0 448 512"><!--! Font Awesome Pro 6.4.0 by @fontawesome - https://fontawesome.com License - https://fontawesome.com/license (Commercial License) Copyright 2023 Fonticons, Inc. --><path d="M272 80H240v32h32V80zM240 32h32 48V80v32 48H272 240 192V112 80 32h48zM120.5 240.5l16 27.7 27.7-16-16-27.7-27.7 16zM55 223l41.6-24 27.7-16 41.6-24 24 41.6 16 27.7 24 41.6-41.6 24-27.7 16-41.6 24L95 292.2 79 264.5 55 223zm281 17H304v32h32V240zm-80-48h48 32 48v48 32 48H336 304 256V272 240 192zM368 432h32V400H368v32zm-48-80h48 32 48v48 32 48H400 368 320V432 400 352zm-80 48H208v32h32V400zm-32-48h32 48v48 32 48H240 208 160V432 400 352h48zM48 400v32H80V400H48zM0 352H48 80h48v48 32 48H80 48 0V432 400 352z"/></svg>

<svg xmlns="http://www.w3.org/2000/svg" viewBox="0 0 448 512"><!--! Font Awesome Pro 6.6.0 by @fontawesome - https://fontawesome.com License - https://fontawesome.com/license (Commercial License) Copyright 2024 Fonticons, Inc. --><path d="M272 80l-32 0 0 32 32 0 0-32zM240 32l32 0 48 0 0 48 0 32 0 48-48 0-32 0-48 0 0-48 0-32 0-48 48 0zM120.5 240.5l16 27.7 27.7-16-16-27.7-27.7 16zM55 223l41.6-24 27.7-16 41.6-24 24 41.6 16 27.7 24 41.6-41.6 24-27.7 16-41.6 24L95 292.2 79 264.5 55 223zm281 17l-32 0 0 32 32 0 0-32zm-80-48l48 0 32 0 48 0 0 48 0 32 0 48-48 0-32 0-48 0 0-48 0-32 0-48zM368 432l32 0 0-32-32 0 0 32zm-48-80l48 0 32 0 48 0 0 48 0 32 0 48-48 0-32 0-48 0 0-48 0-32 0-48zm-80 48l-32 0 0 32 32 0 0-32zm-32-48l32 0 48 0 0 48 0 32 0 48-48 0-32 0-48 0 0-48 0-32 0-48 48 0zM48 400l0 32 32 0 0-32-32 0zM0 352l48 0 32 0 48 0 0 48 0 32 0 48-48 0-32 0L0 480l0-48 0-32 0-48z"/></svg>
